X:1
T:Young Damon’s Flight
T:Young Damon’s Flight
T:Nathaniel Kynaston (1683-1757)
C:Nathaniel Kynaston (1683-1757)
L:1/8
M:3/4
K:G
V:1 treble 
V:1
 b2 fg>f b2 f | gf e gfe ^d2 c | Bg f Afe GcB | AG F Ee^d e3 :: b2 gb c'd'a bc' | b>c' b abg fga | %6
 bc' d' bgf edc | Bg B Agf g2 b/a/ | g2 b f2 b e2 B | e>f ga b fga | be' c' ad'b gc'a | %11
 b e' f f2 e e3 :| %12

